X:110
T: Rolling in the Barrel
M: 4/4
L: 1/8
S: Luke O'Malley vol 1
Z: B.Black
R: reel
K: Edor
E2 (3E^DE BEE2|dBAF DEFD|E2 (3E^DE BEE2|dBAd BEE2|
E2 (3E^DE BEE2|(3BdB AF DEFD|B,EE2 BEE2|(3BdB Ad BEE2||
e2 (3gfe be (3gfe|d^cdf (3aba fd|e2 (3gfe be (3gfe|\
dBAd BEE2|
e2 (3gfe be (3gfe|de (3fed adfd|efgb (3aba fe|\
dBAd BEE2  ||
